X:1
T:James Gibb editions
T:Ave verum - Bentivoglio
T:#
%%score [ 1 2 3 ]
L:1/8
Q:1/4=66
M:4/4
K:Eb
V:1 treble nm="Alto" snm="A"
V:2 treble-8 nm="Tenor" snm="T"
V:3 bass nm="Bass" snm="B"
V:1
"^Ave verum""^Giulio Bentivoglio\n (1864-1939)""^piuttosto lento"!p! C4 G4 | F2 (ED) C2 D2 | %2
w: A\- ve|ve- rum * cor- pus|
 G,4"^," G,2 =B,2- | B,2 =B,2 C2 D2 | F2 E2 D2 z2 |[M:4/4] z8 | z4 z2 G2- | G2 G2 A2 G2 | %8
w: na- tum de|* Ma- ri- a|vir- gi- ne,||ve\-|* re pas- sum|
 F2 E2 (D2 EF | G2 E2"^," C2 DE | F2 D2)"^," B,2 E2 | C4"^," =B,2 G,2 | E6 D2 | C4 z4 | %14
w: im- mo- la\- * *||* * tum in|cru- ce pro|ho- mi-|ne:|
 z4!mf! =E2 E2 | (F2 G2 A2)"^," F2 | F4 _E4 | C4 C2 z2 | z4 =B,2 B,2 | (C2 D2 E2) C2 | %20
w: cu- jus|la\- * * tus|per- fo-|ra- tum,|cu- jus|la\- * * tus|
 C2 B,2 (B,2 A,2) | G,4 z4 | z2 G4 D2 | (F2 C2) (ED) C2 | B,4 C4 | D4 z4 ||"^dolcissimo" B,4 E4 | %27
w: per- fo- ra\- *|tum|flu- xit|un\- * da * et|san- gui-|ne.|E- sto|
 C4"^," F4 | B,4 (E2 D2) | C4"^," F4 | G4 B4 | (B2 E2) A4 | G6 F2 | E4 z4 |!pp! G4 F2 E2 | %35
w: no- bis|prae- gu\- *|sta- tum|mor- tis|in * e-|xa- mi-|ne,|O Je- su|
 !>!D4"^," D4 | G4 F2 E2 | (!>!E2 D2)"^," D4 | C4 F4- | F2 (ED) (C2 D2) | G,2 (G3 F) D2 | %41
w: dul- cis,|O Je- su|pi\- * e,|O Je\-|* su * Fi\- *|li Ma\- * ri-|
 !fermata!=E4 z4 |] %42
w: ae.|
V:2
!p! c4 g4 | f2 (ed) c2 d2 | G4"^," G2 G2- | G2 G2 A2 A2 | G2 c2 =B2 z2 | %5
w: A\- ve|ve- rum * cor- pus|na- tum de|* Ma- ri- a|vir- gi- ne,|
[M:4/4][K:treble-8] z4 z2 c2- | c2 c2 d4- | d2 c4 (e2 | d2) c2 (dcBA) |"^," G2 (B2 cB) (AG) | %10
w: ve\-|* re pas\-|* sum im\-|* mo- la\- * * *|tum, im\- * * mo\- *|
 (F2 A2) B2 G2 | A4 G2 z2 | z2 G2 =A2 =B2 | c4!mf! c2 c2 | _d4 (c2 _B2) | (_A2 B2) c4 | %16
w: la\- * tum in|cru- ce|pro ho- mi-|ne: cu- jus|la- tus *|per\- * fo-|
 (B2 G2 A2 B2) |"^," A4 G2 G2 | (A4 G2) F2 | (E2 F2) G4 | (F4 E4) | D2 z2 G4 | c4 B4 | %23
w: ra\- * * *|tum, cu- jus|la\- * tus|per\- * fo-|ra\- *|tum flu-|xit un-|
 A2 A2 (cB A2- | A2 G4) =A2 | F4 z4 || G4 G4 | _A4"^," A4 | G4 G4 | A4"^," A4 | (G2 B2) (e2 _d2) | %31
w: da et san\- * *|* * gui-|ne.|E- sto|no- bis|prae- gu-|sta- tum|mor\- * tis *|
 c4 (c2 A2) | (e2 B2 c2) d2 | e4 z4 |!pp! e4 d2 c2 | !>!=B4"^," B4 | (G2 e2) d2 c2 | %37
w: in e\- *|xa\- * * mi-|ne,|O Je- su|dul- cis,|O * Je- su|
 (!>!c2 =B2)"^," B4 | (c2 _B2) A4 | G4 A4 | G2 (G2 =A2) =B2 | !fermata!G4 z4 |] %42
w: pi\- * e,|O * Je-|su Fi-|li Ma\- * ri-|ae.|
V:3
 z8 | z8 | z4 z2!p! G,2- | G,2 G,2 F,2 F,2 | (C,D,) (E,F,)"^," G,2 G,2- |[M:4/4] G,2 G,2 A,4- | %6
w: ||de|* Ma- ri- a|vir\- * gi\- * ne, ve\-|* re pas\-|
 A,2 G,2 F,4- | F,2 E,2 (F,2 G,2 | A,2 =A,2) (B,_A,)G,F, | (E,2 G,2 A,G,F,E, | D,2 F,2) G,2 C,2 | %11
w: * sum im\-|* mo- la\- *|* * tum, * im- mo-|la\- * * * * *|* * tum in|
 F,4 G,2 z2 | z2 E,2 F,2 G,2 | C,4 z4 | z8 | z4!mf! F,2 F,2 | G,2 E,2 F,2 G,2 | (A,2 F,2) C,2 z2 | %18
w: cru- ce|pro ho- mi-|ne:||cu- jus|la- tus per- fo-|ra\- * tum,|
 z8 | z4 C,2 C,2 | (D,4 C,4) | =B,,2 z2 z4 | C,4 G,4 | (F,2 E,D,)"^," C,2 D,2 | E,6 F,2 | %25
w: |per- fo-|ra\- *|tum|flu- xit|un\- * * da et|san- gui-|
 B,,4 z4 || E,4 C,4 | F,4 D,4 | (E,2 D,2) C,4 | (F,2 E,2) D,4 | E,4 G,4 | A,4 F,4 | %32
w: ne.|E- sto|no- bis|prae\- * gu-|sta\- * tum|mor- tis|in e-|
 (C2 G,2 A,2) B,2 | E,4 z4 | z8 |!pp! !>!A,4 G,2 F,2 | E,2 C,2 F,2 ^F,2 | !>!G,4"^," G,4 | %38
w: xa\- * * mi-|ne,||O Je- su|dul- cis, Je- su|pi- e,|
 z4 (D,2 C,2) | =B,,2 C,2 F,4 | F,2 (E,2 D,2) G,2 | !fermata!C,4 z4 |] %42
w: O *|Je- su Fi-|li Ma\- * ri-|ae.|

